outputs/icons/communication/react_add_round.svg

<svg xmlns="http://www.w3.org/2000/svg" width="1200" height="1200" fill="none"><path fill="#000" d="M900 450V350H800V142c-61.5-27-129-42-200.5-42-276 0-499.5 224-499.5 500s223.5 500 499.5 500C876 1100 1100 876 1100 600c0-52.5-8.5-102.5-23.5-150zm-125-50c41.5 0 75 33.5 75 75s-33.5 75-75 75-75-33.5-75-75 33.5-75 75-75m-350 0c41.5 0 75 33.5 75 75s-33.5 75-75 75-75-33.5-75-75 33.5-75 75-75m175 475c-116.5 0-215.5-73-255.5-175h511c-40 102-139 175-255.5 175m500-725h100v100h-100v100h-100V250H900V150h100V50h100z"/></svg>

<svg width="1200" height="1200" viewBox="0 0 1200 1200" fill="none" xmlns="http://www.w3.org/2000/svg"><path d="M900 450V350H800V142C738.5 115 671 100 599.5 100C323.5 100 100 324 100 600C100 876 323.5 1100 599.5 1100C876 1100 1100 876 1100 600C1100 547.5 1091.5 497.5 1076.5 450H900ZM775 400C816.5 400 850 433.5 850 475C850 516.5 816.5 550 775 550C733.5 550 700 516.5 700 475C700 433.5 733.5 400 775 400ZM425 400C466.5 400 500 433.5 500 475C500 516.5 466.5 550 425 550C383.5 550 350 516.5 350 475C350 433.5 383.5 400 425 400ZM600 875C483.5 875 384.5 802 344.5 700H855.5C815.5 802 716.5 875 600 875ZM1100 150H1200V250H1100V350H1000V250H900V150H1000V50H1100V150Z" fill="black"/></svg>
